frontend/src/assets/icons/camera-lens.svg

<svg width="24" height="24" viewBox="0 0 24 24" fill="none" xmlns="http://www.w3.org/2000/svg">
<g id="camera-lens">
<path id="Icon" d="M21.4155 15.3411C18.5924 17.3495 14.8895 17.5726 11.877 16M2.58445 8.65889C5.41439 6.64566 9.12844 6.42638 12.1448 8.01149M15.3737 14.1243C18.2604 12.305 19.9319 8.97413 19.601 5.51222M8.58184 9.90371C5.72231 11.7291 4.06959 15.0436 4.39878 18.4878M15.5269 10.137C15.3939 6.72851 13.345 3.61684 10.1821 2.17222M8.47562 13.9256C8.63112 17.3096 10.6743 20.392 13.8177 21.8278M19.071 4.92893C22.9763 8.83418 22.9763 15.1658 19.071 19.071C15.1658 22.9763 8.83416 22.9763 4.92893 19.071C1.02369 15.1658 1.02369 8.83416 4.92893 4.92893C8.83418 1.02369 15.1658 1.02369 19.071 4.92893ZM14.8284 9.17157C16.3905 10.7337 16.3905 13.2663 14.8284 14.8284C13.2663 16.3905 10.7337 16.3905 9.17157 14.8284C7.60948 13.2663 7.60948 10.7337 9.17157 9.17157C10.7337 7.60948 13.2663 7.60948 14.8284 9.17157Z" stroke="black" stroke-width="2" stroke-linecap="round" stroke-linejoin="round"/>
</g>
</svg>

<svg xmlns="http://www.w3.org/2000/svg" width="24" height="24" fill="none" viewBox="0 0 24 24">
  <path stroke="#000" stroke-linecap="round" stroke-linejoin="round" stroke-width="2" d="M21.416 15.341a9.17 9.17 0 0 1-9.539.659M2.584 8.659a9.17 9.17 0 0 1 9.56-.648m3.23 6.113A9.17 9.17 0 0 0 19.6 5.512M8.581 9.904A9.17 9.17 0 0 0 4.4 18.488m11.128-8.351a9.172 9.172 0 0 0-5.345-7.965M8.476 13.926a9.172 9.172 0 0 0 5.342 7.902m5.253-16.9c3.905 3.906 3.905 10.238 0 14.143-3.905 3.905-10.237 3.905-14.142 0-3.905-3.905-3.905-10.237 0-14.142 3.905-3.905 10.237-3.905 14.142 0Zm-4.243 4.244a4 4 0 1 1-5.656 5.656 4 4 0 0 1 5.656-5.656Z"/>
</svg>
